X:92
T:The Drunken Maidens - Fry
C:Taken down from Edm. Fry by F.W.B. 1890.  
%%VWML:SBG-1-1-446-0
F:http://www.vwml.org/record/SBG/1/1/446
Z:Original Sibleius Transcription by Martin and Shan Graebe
L:1/8
M:2/4
I:linebreak $
K:C
G | e2 dc | G3 e | e2 cdB | c3 G | e2 dc | G3 f | ecdB | c3 G |$ f2 de | fed d | ede f | g3 G | 
e2 dc | G3 f | ecd B2 | c4 |] 
